X:196
T:Le Parlement
C:anonymous
N:choreographie W. Dietz
N:|:2D 2S Drehung li auf 4 Schritte:|D 2S D 2S |wieder 2D 2S Drehung li auf 4 Schritte
N:original url: www.wolfram.claranet.de
M:4/4
L:1/8
K:G
%% writehistory true
|:B3c BAG2| A3G FED2| EFGA B2A2|1 B8:|2 G8|
|B2d2 Bcd2| B>cdc BAG2| A2c2 ABc2| A>BcB AGF2|
G3F GAB2| G3F GAB2| EFGA B2A2| G8||
